X:0378
T:Batchelors of every Station.
M:2/4
L:1/16
Q:1/4=104
I: :: ::
Z:Jack Campin * www.campin.me.uk * 2009
K:G
B2d2 d2ef|g3a     (gf)(ed)|e3f g2.e2| dedc    B2G2|
B2d2 g3f |e2a2 {f}Tf4     |g2b2d2g2 |(ba)(gf) g4 :|
b2g2 a2f2|g2ag     f2d2   |e3fg2e2  | dedc    B2G2|
B2d2Tg3f |e2a2 {g}Hf4     |g2b2d2g2 | bagf    g4 :|
<end>
<start>
